X:164b
T:St. Anne's Reel
R:reel
S:Jim Coon to CoMandoList TOW
M:2/4
L:1/16
Q:1/4=120
K:D
|:de|"D"f2fg fedB|A2F2 DFAF|
"G"B2G2 DGBG|"A7"ABAG F2A2|!
"D"f2fg fedB|A2F2 DFAF|
"G"BGBd "A7"cAce|"D"d2f2 d2:|!
|:ag|"D"f2fe defg| "G"a2g2 g2gf|
"A7"efed cdeg|"D"b2a2 "A7"a2ag|!
"D"f2fe defg|"G"a2g2 "Em"g2gf|
"A7"efed cdeg|"D"f2d2 d2:|!
